src/assets/html5.svg

<svg xmlns="http://www.w3.org/2000/svg" width="57" height="64" fill="none" xmlns:v="https://vecta.io/nano"><g fill="#4a4970"><path d="M51.252 57.778L28.5 64 5.748 57.778.498 0h56.004l-5.25 57.778z"/><path d="M28.498 4v55.5l18.464-5.484L51.874 4H28.498z"/></g><path d="M45.224 12H11.712l.786 8 1.238 14h21.768l-.71 7.968-6.296 2.012-6.286-2.012L21.794 38h-7.69l.918 9.974 13.476 4.006 13.456-4.008L43.934 26H21.002l-.5-6h23.996l.726-8z" fill="#fff"/></svg>

<svg width="57" height="64" viewBox="0 0 57 64" fill="none" xmlns="http://www.w3.org/2000/svg">
<path d="M51.252 57.778L28.5 64L5.74799 57.778L0.497986 0H56.502L51.252 57.778Z" fill="#111F4C"/>
<path d="M28.498 4V59.5L46.962 54.016L51.874 4H28.498Z" fill="#111F4C"/>
<path d="M45.224 12H11.712L12.498 20L13.736 34H35.504L34.794 41.968L28.498 43.98L22.212 41.968L21.794 38H14.104L15.022 47.974L28.498 51.98L41.954 47.972L43.934 26H21.002L20.502 20H44.498L45.224 12Z" fill="#4A4970"/>
</svg>
